contributed-vectors/calyx_vpn.svg

<?xml version="1.0" encoding="UTF-8" standalone="no"?>
<svg
   xmlns:dc="http://purl.org/dc/elements/1.1/"
   xmlns:cc="http://creativecommons.org/ns#"
   xmlns:rdf="http://www.w3.org/1999/02/22-rdf-syntax-ns#"
   xmlns:svg="http://www.w3.org/2000/svg"
   xmlns="http://www.w3.org/2000/svg"
   xmlns:sodipodi="http://sodipodi.sourceforge.net/DTD/sodipodi-0.dtd"
   xmlns:inkscape="http://www.inkscape.org/namespaces/inkscape"
   viewBox="0 0 192 192"
   version="1.1"
   id="svg16"
   sodipodi:docname="calyx_vpn.svg"
   inkscape:version="0.92.4 (5da689c313, 2019-01-14)">
  <metadata
     id="metadata20">
    <rdf:RDF>
      <cc:Work
         rdf:about="">
        <dc:format>image/svg+xml</dc:format>
        <dc:type
           rdf:resource="http://purl.org/dc/dcmitype/StillImage" />
        <dc:title></dc:title>
      </cc:Work>
    </rdf:RDF>
  </metadata>
  <sodipodi:namedview
     pagecolor="#ffffff"
     bordercolor="#666666"
     borderopacity="1"
     objecttolerance="10"
     gridtolerance="10"
     guidetolerance="10"
     inkscape:pageopacity="0"
     inkscape:pageshadow="2"
     inkscape:window-width="1920"
     inkscape:window-height="1017"
     id="namedview18"
     showgrid="true"
     inkscape:zoom="4.9166667"
     inkscape:cx="77.958647"
     inkscape:cy="107.56329"
     inkscape:window-x="-8"
     inkscape:window-y="-8"
     inkscape:window-maximized="1"
     inkscape:current-layer="svg16"
     inkscape:snap-global="true">
    <inkscape:grid
       type="xygrid"
       id="grid827"
       spacingx="4"
       spacingy="4" />
  </sodipodi:namedview>
  <defs
     id="defs4">
    <style
       id="style2">.a{fill:none;stroke:#b1b5bd;stroke-linecap:round;stroke-linejoin:round;isolation:isolate;opacity:0.63;}</style>
  </defs>
  <path
     inkscape:connector-curvature="0"
     d="M 96,16 C 56,16 40,36 40,36 v 72 c 0,40 56,68 56,68 0,0 56,-28 56,-68 V 36 c 0,0 -16,-20 -56,-20 z"
     style="fill:#98dc9a;stroke:#98dc9a;stroke-width:16;stroke-linecap:round;stroke-linejoin:round"
     id="path818" />
  <path
     style="opacity:1;vector-effect:none;fill:#71a372;fill-opacity:1;fill-rule:evenodd;stroke:none;stroke-width:1.02353263;paint-order:stroke fill markers"
     d="M 96 8 C 74.666667 8 59.214803 13.394988 49.115234 19.005859 C 39.015665 24.616731 33.753906 31.001953 33.753906 31.001953 C 32.618747 32.420505 32.000196 34.183169 32 36 L 32 108 C 32 131.73333 47.959275 150.35962 62.792969 163.07422 C 77.626662 175.78881 92.421875 183.15625 92.421875 183.15625 C 93.548113 183.71938 94.774057 184 96 184 L 96 8 z "
     id="rect836" />
  <path
     style="fill:#56595b;stroke:none;stroke-width:1px;stroke-linecap:butt;stroke-linejoin:miter;stroke-opacity:1"
     d="M 90.710938 44.542969 L 81.152344 50.033203 L 70.779297 51.050781 L 64.474609 58.779297 L 60.40625 58.982422 L 50.236328 66.304688 L 50.847656 77.289062 L 46.373047 80.339844 L 45.966797 69.966797 L 8 88 L 28.880859 88.474609 L 26.033203 96.40625 L 55.525391 96.40625 L 69.152344 125.08398 L 69.804688 163.86133 L 113.63281 160.49023 L 112.67773 128.74609 L 136.06836 105.35547 L 136.06836 94.169922 L 165.35547 94.169922 L 159.05078 81.152344 L 184 82.550781 L 177.35547 57.355469 L 135.66016 63.865234 L 142.37305 74.644531 L 135.66016 74.644531 L 130.57617 70.169922 L 131.18555 54.507812 L 122.0332 48.203125 L 113.08398 48.203125 L 110.64453 50.441406 L 106.7793 44.949219 L 90.710938 44.542969 z "
     id="path849" />
  <path
     style="fill:#f8c18c;stroke:none;stroke-width:1px;stroke-linecap:butt;stroke-linejoin:miter;stroke-opacity:1"
     d="m 24.880571,83.992435 15.388561,-6.759461 v 9.348191 l 12.368376,-5.608915 8.6291,5.465097 -2.876367,6.471825 H 33.078216 l 2.013456,-8.772918 z"
     id="path851"
     inkscape:connector-curvature="0" />
  <path
     style="fill:#f8c18c;stroke:none;stroke-width:1px;stroke-linecap:butt;stroke-linejoin:miter;stroke-opacity:1"
     d="m 135.18923,77.952065 0.57527,11.649285 22.00421,-0.143818 -5.17746,-12.512195 26.75021,0.719092 -5.32128,-12.512195 -30.63331,0.86291 5.17746,11.361648 z"
     id="path853"
     inkscape:connector-curvature="0"
     sodipodi:nodetypes="ccccccccc" />
  <path
     style="fill:#c39a54;stroke:none;stroke-width:1px;stroke-linecap:butt;stroke-linejoin:miter;stroke-opacity:1"
     d="m 56.80824,68.028601 -0.143819,6.184188 2.732549,5.896551 -5.752733,-4.026913 -0.143819,-6.759461 z"
     id="path855"
     inkscape:connector-curvature="0" />
  <path
     style="fill:#c39a54;stroke:none;stroke-width:1px;stroke-linecap:butt;stroke-linejoin:miter;stroke-opacity:1"
     d="m 65.724976,92.477717 0.143818,-6.04037 7.76619,-0.575273 -1.294365,7.766189 z"
     id="path857"
     inkscape:connector-curvature="0" />
  <path
     style="fill:#c39a54;stroke:none;stroke-width:1px;stroke-linecap:butt;stroke-linejoin:miter;stroke-opacity:1"
     d="m 74.210258,71.192604 0.287636,-10.786375 -2.301093,-4.314549 -5.17746,4.314549 5.17746,2.301094 z"
     id="path859"
     inkscape:connector-curvature="0" />
  <path
     style="fill:#c39a54;stroke:none;stroke-width:1px;stroke-linecap:butt;stroke-linejoin:miter;stroke-opacity:1"
     d="m 86.86627,50.626583 3.739277,-1.72582 1.438183,7.910008 z"
     id="path861"
     inkscape:connector-curvature="0" />
  <path
     style="fill:#f9de81;stroke:none;stroke-width:1px;stroke-linecap:butt;stroke-linejoin:miter;stroke-opacity:1"
     d="m 59.828425,66.015144 v 6.184188 l 5.321278,11.936922 4.170731,-0.575274 3.307822,-2.301093 0.07191,-4.242641 -2.804457,-9.707737 -1.869639,-3.595458 -4.746004,0.143818 z"
     id="path863"
     inkscape:connector-curvature="0"
     sodipodi:nodetypes="cccccccccc" />
  <path
     style="fill:#f9de81;stroke:none;stroke-width:1px;stroke-linecap:butt;stroke-linejoin:miter;stroke-opacity:1"
     d="m 75.936077,54.509678 4.889824,-0.719092 2.876366,-1.72582 6.471825,8.6291 0.719092,19.559293 -11.505467,0.719091 -0.575273,-18.408746 z"
     id="path865"
     inkscape:connector-curvature="0" />
  <path
     style="fill:#f9de81;stroke:none;stroke-width:1px;stroke-linecap:butt;stroke-linejoin:miter;stroke-opacity:1"
     d="m 94.488642,47.750216 0.86291,13.662742 0.575273,19.127837 12.799835,-2.876366 -1.29437,-21.860386 -4.45837,-7.76619 z"
     id="path867"
     inkscape:connector-curvature="0" />
  <path
     style="fill:#f9de81;stroke:none;stroke-width:1px;stroke-linecap:butt;stroke-linejoin:miter;stroke-opacity:1"
     d="m 111.31539,55.516406 2.30109,-3.307821 4.17073,-0.431455 8.05383,3.45164 0.57527,15.676197 -4.60219,2.876367 -7.62237,1.006728 -0.57527,-14.813288 z"
     id="path869"
     inkscape:connector-curvature="0"
     sodipodi:nodetypes="ccccccccc" />
  <path
     style="fill:#c39a54;stroke:none;stroke-width:1px;stroke-linecap:butt;stroke-linejoin:miter;stroke-opacity:1"
     d="m 77.949534,92.19008 1.294365,-7.334735 6.471825,-1.150546 0.431455,8.629099 z"
     id="path871"
     inkscape:connector-curvature="0" />
  <path
     style="fill:#c39a54;stroke:none;stroke-width:1px;stroke-linecap:butt;stroke-linejoin:miter;stroke-opacity:1"
     d="m 90.030274,86.437347 1.72582,11.217829 7.622371,-0.287636 -2.444912,-11.649285 z"
     id="path873"
     inkscape:connector-curvature="0" />
  <path
     style="fill:#56595b;stroke:none;stroke-width:1px;stroke-linecap:butt;stroke-linejoin:miter;stroke-opacity:1"
     d="M 113.41211 153.18945 L 69.664062 155.49219 L 69.888672 168.77734 C 82.001492 177.9549 92.421875 183.15625 92.421875 183.15625 C 94.674352 184.28251 97.325648 184.28251 99.578125 183.15625 C 99.578125 183.15625 105.726 180.08727 114.05469 174.51758 L 113.41211 153.18945 z "
     id="path849-2" />
  <path
     style="fill:#c39a54;stroke:none;stroke-width:1px;stroke-linecap:butt;stroke-linejoin:miter;stroke-opacity:1"
     d="M 70.615234 96.361328 L 62.273438 97.798828 L 73.490234 124.11719 L 77.230469 126.13086 L 73.490234 127.13867 L 74.144531 171.90039 C 80.631172 176.49635 86.203242 179.76621 89.439453 181.55859 L 86.867188 126.99414 L 83.126953 124.26172 L 85.572266 122.67969 L 79.099609 116.49609 L 74.353516 108.87305 L 71.478516 107.14648 L 71.908203 101.68164 L 68.169922 100.96289 L 70.757812 99.8125 L 70.615234 96.361328 z "
     id="path875" />
  <path
     style="fill:#f9de81;stroke:none;stroke-width:1px;stroke-linecap:butt;stroke-linejoin:miter;stroke-opacity:1"
     d="M 128.57422 76.369141 L 116.34961 81.115234 L 101.53516 85.287109 L 102.83008 96.216797 L 108.15234 96.935547 L 121.0957 92.621094 L 110.02148 99.667969 L 120.80664 96.792969 L 118.36328 101.9707 L 100.38477 101.53906 C 100.38477 101.53906 98.437914 104.8716 98.083984 106.57227 C 97.456959 109.58518 99.091797 115.48828 99.091797 115.48828 C 99.091797 115.48828 96.385893 111.23172 95.783203 108.58594 C 95.2047 106.04634 95.638672 100.81836 95.638672 100.81836 L 91.181641 100.53125 L 88.160156 95.785156 L 74.929688 98.517578 L 78.667969 110.45508 L 90.318359 122.53516 L 92.205078 183.04102 C 92.218386 183.04769 92.421875 183.15625 92.421875 183.15625 C 94.674352 184.28251 97.325648 184.28251 99.578125 183.15625 C 99.578125 183.15625 103.87802 180.98773 110.08984 177.07812 L 109.01367 127.57031 L 98.228516 122.82422 L 112.03516 121.67188 L 126.70312 108.58594 L 129.43555 104.12695 L 128.57422 76.369141 z "
     id="path877" />
</svg>

<svg xmlns="http://www.w3.org/2000/svg" id="svg16" version="1.1" viewBox="0 0 192 192"><defs id="defs4"><style id="style2">.a{fill:none;stroke:#b1b5bd;stroke-linecap:round;stroke-linejoin:round;isolation:isolate;opacity:.63}</style></defs><path id="path818" d="M96 16c-40 0-56 20-56 20v72c0 40 56 68 56 68s56-28 56-68V36s-16-20-56-20z" style="fill:#98dc9a;stroke:#98dc9a;stroke-width:16;stroke-linecap:round;stroke-linejoin:round"/><path id="rect836" d="M96 8c-21.333 0-36.785 5.395-46.885 11.006-10.1 5.61-15.361 11.996-15.361 11.996A8 8 0 0 0 32 36v72c0 23.733 15.96 42.36 30.793 55.074 14.834 12.715 29.629 20.082 29.629 20.082A7.997 7.997 0 0 0 96 184V8z" style="opacity:1;vector-effect:none;fill:#71a372;fill-opacity:1;fill-rule:evenodd;stroke:none;stroke-width:1.02353263;paint-order:stroke fill markers"/><path id="path849" d="m90.71 44.543-9.558 5.49-10.373 1.018-6.304 7.728-4.069.203-10.17 7.323.612 10.984-4.475 3.05-.406-10.372L8 88l20.88.475-2.847 7.931h29.492l13.627 28.678.653 38.777 43.828-3.37-.955-31.745 23.39-23.39V94.17h29.287l-6.304-13.018L184 82.551l-6.645-25.196-41.695 6.51 6.713 10.78h-6.713l-5.084-4.475.61-15.662-9.153-6.305h-8.949l-2.44 2.238-3.865-5.492-16.068-.406z" style="fill:#56595b;stroke:none;stroke-width:1px;stroke-linecap:butt;stroke-linejoin:miter;stroke-opacity:1"/><path id="path851" d="m24.88 83.992 15.39-6.759v9.348l12.368-5.609 8.629 5.465-2.877 6.472H33.078l2.014-8.773z" style="fill:#f8c18c;stroke:none;stroke-width:1px;stroke-linecap:butt;stroke-linejoin:miter;stroke-opacity:1"/><path id="path853" d="m135.19 77.952.575 11.65 22.004-.144-5.178-12.513 26.75.72-5.32-12.513-30.634.863 5.177 11.362z" style="fill:#f8c18c;stroke:none;stroke-width:1px;stroke-linecap:butt;stroke-linejoin:miter;stroke-opacity:1"/><path id="path855" d="m56.808 68.029-.144 6.184 2.733 5.896-5.753-4.027-.144-6.759z" style="fill:#c39a54;stroke:none;stroke-width:1px;stroke-linecap:butt;stroke-linejoin:miter;stroke-opacity:1"/><path id="path857" d="m65.725 92.478.144-6.04 7.766-.576-1.294 7.766z" style="fill:#c39a54;stroke:none;stroke-width:1px;stroke-linecap:butt;stroke-linejoin:miter;stroke-opacity:1"/><path id="path859" d="m74.21 71.193.288-10.787-2.301-4.314-5.178 4.314 5.178 2.301z" style="fill:#c39a54;stroke:none;stroke-width:1px;stroke-linecap:butt;stroke-linejoin:miter;stroke-opacity:1"/><path id="path861" d="m86.866 50.627 3.74-1.726 1.438 7.91z" style="fill:#c39a54;stroke:none;stroke-width:1px;stroke-linecap:butt;stroke-linejoin:miter;stroke-opacity:1"/><path id="path863" d="M59.828 66.015V72.2l5.322 11.937 4.17-.575 3.308-2.301.072-4.243-2.804-9.707-1.87-3.596-4.746.144z" style="fill:#f9de81;stroke:none;stroke-width:1px;stroke-linecap:butt;stroke-linejoin:miter;stroke-opacity:1"/><path id="path865" d="m75.936 54.51 4.89-.72 2.876-1.725 6.472 8.629.72 19.56-11.506.718-.576-18.408z" style="fill:#f9de81;stroke:none;stroke-width:1px;stroke-linecap:butt;stroke-linejoin:miter;stroke-opacity:1"/><path id="path867" d="m94.489 47.75.863 13.663.575 19.128 12.8-2.877-1.295-21.86-4.458-7.766z" style="fill:#f9de81;stroke:none;stroke-width:1px;stroke-linecap:butt;stroke-linejoin:miter;stroke-opacity:1"/><path id="path869" d="m111.315 55.516 2.301-3.307 4.171-.432 8.054 3.452.575 15.676-4.602 2.876-7.622 1.007-.576-14.813z" style="fill:#f9de81;stroke:none;stroke-width:1px;stroke-linecap:butt;stroke-linejoin:miter;stroke-opacity:1"/><path id="path871" d="m77.95 92.19 1.294-7.335 6.472-1.15.431 8.629z" style="fill:#c39a54;stroke:none;stroke-width:1px;stroke-linecap:butt;stroke-linejoin:miter;stroke-opacity:1"/><path id="path873" d="m90.03 86.437 1.726 11.218 7.622-.287-2.444-11.65z" style="fill:#c39a54;stroke:none;stroke-width:1px;stroke-linecap:butt;stroke-linejoin:miter;stroke-opacity:1"/><path id="path849-2" d="m113.412 153.19-43.748 2.302.225 13.285c12.112 9.178 22.533 14.38 22.533 14.38a8 8 0 0 0 7.156 0s6.148-3.07 14.477-8.64l-.643-21.328z" style="fill:#56595b;stroke:none;stroke-width:1px;stroke-linecap:butt;stroke-linejoin:miter;stroke-opacity:1"/><path id="path875" d="M70.615 96.361 62.273 97.8l11.217 26.318 3.74 2.014-3.74 1.008.655 44.761c6.486 4.596 12.058 7.866 15.294 9.659l-2.572-54.565-3.74-2.732 2.445-1.582-6.472-6.184-4.746-7.623-2.875-1.727.43-5.464-3.74-.72 2.589-1.15-.143-3.45z" style="fill:#c39a54;stroke:none;stroke-width:1px;stroke-linecap:butt;stroke-linejoin:miter;stroke-opacity:1"/><path id="path877" d="m128.574 76.37-12.224 4.745-14.815 4.172 1.295 10.93 5.322.719 12.944-4.315-11.075 7.047 10.786-2.875-2.444 5.178-17.978-.432s-1.947 3.333-2.301 5.033c-.627 3.013 1.008 8.916 1.008 8.916s-2.706-4.256-3.309-6.902c-.578-2.54-.144-7.768-.144-7.768l-4.457-.287-3.022-4.746-13.23 2.733 3.738 11.937 11.65 12.08 1.887 60.506.217.115a8 8 0 0 0 7.156 0s4.3-2.168 10.512-6.078l-1.076-49.508-10.785-4.746 13.806-1.152 14.668-13.086 2.733-4.46-.862-27.757z" style="fill:#f9de81;stroke:none;stroke-width:1px;stroke-linecap:butt;stroke-linejoin:miter;stroke-opacity:1"/></svg>
